X: 12284
T: Fairy Dance, The
R: reel
M: 4/4
K: Dmajor
f2fd effd|effd cdeg|fefa gfed|cABc defg:|
|:a2af fbba|gfge eaag|fefa gfed|1 cABc defg:|2 cABc d2dA||
|:(3DAf (3fAD (3DAf (3fAD|(3DAf (3fAD (3DBg (3gBD|(3DAf (3fAD gfed|1 cABc d2dA:|2 cABc def^g||
|:a^gfe ^dfba|=gfe=d ceag O|fed=c Bged|1 ^cABc def^g:|2 ^cABc d2de||
O ffz2 ggz2|c'c'z2 d'4||

